X: 3541
T: Big John McNeil
R: reel
M: 4/4
K: Dmajor
|:dA|D2FA BAFA|dAFA BAFA|D2FA BAFA|BdcB AGFE|
D2FA BAFA|dAFA BAFA|DFEG FAGB|Aceg fd:|
|:fg|adbd adfg|adbd a2fg|adbd adfa|gafa e2 fg|
adbd adfg|adbd a2fe|dcBA BAGF|GABc d2:|

